X:1
T: Juniper Jig
C: by Charles F. Sherrit
O: from Natalie MacMaster "Fit as a Fiddle"
B: BSFC Session Tune Book 2016 p.44
Z: arr. T. Traub 8-24-2003
R: Jig
M: 6/8
K: A
L: 1/8
|: e |\
"A"aga ecA | "D"FAd fed | "A"cee Acc | "Bm"Bcd "E"efg |\
"A"aga ecA | "D"FAd fed | "A"cec "E"dBG | "A"A3 A2 :|
=G |\
"D"FAd fed | "D"fed agf | "A"ecA EAc | "A"EAc cBA |\
"E"GBB EBB | "E"GBB EBB | "A"AGA "E"BAB | "A"c2 A AG=G ||
"D"FAd fed | "D"fed agf | "A"ecA EAc | "A"EAc cBA |\
"E"GBB EBB | "E"GBB E2 e | "E"gfe efg | "A"a3 a2 |]
